!!!OTL: ICH BIN VOM BERG DER HIRTENKNAB
!!!ARE: Europa, Mitteleuropa, Deutschland
!!!SCT: F0321
!!!YEM: Copyright 1995, estate of Helmut Schaffrath.
**kern
*ICvox
*Ivox
*M4/4
*k[]
*C:
{8G
8G
8G
=1
4.e
8e
4.d
8d
=2
4c
4.r}
{8B-
8B-
8B-
=3
8A
8G
8F
8E
4D
4C
=4
4G
4.r}
{8G
8G
8G
=5
4.c
8c
4c
4c
=6
4B
4.r}
{8G
8G
8G
=7
4.e-
8e-
4e-
4e-
=8
4d
4r}
{4f
8d
8B
=9
4c
4E
2G
=10
4C
4.r}
==
!!!AGN: Jugend - Lied, Natur
!!!ONB: ESAC (Essen Associative Code) Database: FINK
!!!AMT: simple quadruple
!!!AIN: vox
!!!EED: Helmut Schaffrath
!!!EEV: 1.0
*-
